X:1
T: Craig Coynach
C:Alexander Walker
R:Strathspey
Q: 128
K:Am
M:4/4
L:1/16
|:G2|EA3 A3B c3B A3c|BG3 d3G e3c d3B|EA3 A3B c3B c3d|eg3 dg3 BA3 A2G2|
EA3 A3B c3B A3c|BG3 d3G e3c d3B|EA3 A3B c3B c3d|eg3 dg3 BA3 A2G2|
Aa3 a3g b3a a4|dg3 g3a b3a g2d2|e4 d3e g3a b3a|g3d edcB A4 A2G2|
Aa3 a3g b3a a4|dg3 g3a b3a g2d2|eg3 d3e g3a b3a|g3e d2B2 AAA2 A2:|
